static/assets/img/icons/theme/weather/day-rain.svg

<svg height="24" viewBox="0 0 24 24" width="24" xmlns="http://www.w3.org/2000/svg"><g fill="none" fill-rule="evenodd"><path d="m0 0h24v24h-24z" opacity="0"/><g fill="#000"><path d="m6.5 24c-.82842712 0-1.5-.6715729-1.5-1.5 0-.5522847.5-1.3856181 1.5-2.5 1 1.1143819 1.5 1.9477153 1.5 2.5 0 .8284271-.67157288 1.5-1.5 1.5zm5 0c-.8284271 0-1.5-.6715729-1.5-1.5 0-.5522847.5-1.3856181 1.5-2.5 1 1.1143819 1.5 1.9477153 1.5 2.5 0 .8284271-.6715729 1.5-1.5 1.5zm5 0c-.8284271 0-1.5-.6715729-1.5-1.5 0-.5522847.5-1.3856181 1.5-2.5 1 1.1143819 1.5 1.9477153 1.5 2.5 0 .8284271-.6715729 1.5-1.5 1.5zm-3-11c-1.9329966 0-3.5-1.5670034-3.5-3.5 0-1.93299662 1.5670034-3.5 3.5-3.5s3.5 1.56700338 3.5 3.5c0 1.9329966-1.5670034 3.5-3.5 3.5zm6.2419575-4.125h1.3125c.7248738 0 1.3125.58762627 1.3125 1.3125 0 .7248737-.5876262 1.3125-1.3125 1.3125h-1.3125c-.7248737 0-1.3125-.5876263-1.3125-1.3125 0-.72487373.5876263-1.3125 1.3125-1.3125zm-3.0094223-4.0500947.9280776-.92807765c.5125632-.51256313 1.3435922-.51256313 1.8561553 0 .5125632.51256313.5125632 1.34359217 0 1.8561553l-.9280776.92807765c-.5125632.51256313-1.3435922.51256313-1.8561553 0-.5125632-.51256313-.5125632-1.34359217 0-1.8561553zm-3.5530777-3.8249053c.7248738 0 1.3125.58762627 1.3125 1.3125v1.3125c0 .72487373-.5876262 1.3125-1.3125 1.3125-.7248737 0-1.3125-.58762627-1.3125-1.3125v-1.3125c0-.72487373.5876263-1.3125 1.3125-1.3125zm-6.29067233 2.89682765c.51256313-.51256313 1.34359217-.51256313 1.8561553 0l.92807765.92807765c.51256318.51256313.51256318 1.34359217 0 1.8561553-.51256313.51256313-1.34359216.51256313-1.8561553 0l-.92807765-.92807765c-.51256313-.51256313-.51256313-1.34359217 0-1.8561553z" opacity=".3"/><path d="m4.74714567 18.0425758c-1.65304205-1.0685402-2.74714567-2.9277872-2.74714567-5.0425758 0-3.3137085 2.6862915-6 6-6 2.7957591 0 5.1449096 1.91215918 5.8109738 4.5h2.4390262c2.0710678 0 3.75 1.6789322 3.75 3.75s-1.6789322 3.75-3.75 3.75h-9c-.96182105 0-1.83906822-.3621038-2.50285433-.9574242z"/></g></g></svg>

<svg width="24px" height="24px" viewBox="0 0 24 24" version="1.1" xmlns="http://www.w3.org/2000/svg" xmlns:xlink="http://www.w3.org/1999/xlink">
    <title>Icon For Day-rain</title>
    <g stroke="none" stroke-width="1" fill="none" fill-rule="evenodd">
        <polygon points="0 0 24 0 24 24 0 24" opacity="0"></polygon>
        <path d="M6.5,24 C5.67157288,24 5,23.3284271 5,22.5 C5,21.9477153 5.5,21.1143819 6.5,20 C7.5,21.1143819 8,21.9477153 8,22.5 C8,23.3284271 7.32842712,24 6.5,24 Z M11.5,24 C10.6715729,24 10,23.3284271 10,22.5 C10,21.9477153 10.5,21.1143819 11.5,20 C12.5,21.1143819 13,21.9477153 13,22.5 C13,23.3284271 12.3284271,24 11.5,24 Z M16.5,24 C15.6715729,24 15,23.3284271 15,22.5 C15,21.9477153 15.5,21.1143819 16.5,20 C17.5,21.1143819 18,21.9477153 18,22.5 C18,23.3284271 17.3284271,24 16.5,24 Z M13.5,13 C11.5670034,13 10,11.4329966 10,9.5 C10,7.56700338 11.5670034,6 13.5,6 C15.4329966,6 17,7.56700338 17,9.5 C17,11.4329966 15.4329966,13 13.5,13 Z M19.7419575,8.875 L21.0544575,8.875 C21.7793313,8.875 22.3669575,9.46262627 22.3669575,10.1875 C22.3669575,10.9123737 21.7793313,11.5 21.0544575,11.5 L19.7419575,11.5 C19.0170838,11.5 18.4294575,10.9123737 18.4294575,10.1875 C18.4294575,9.46262627 19.0170838,8.875 19.7419575,8.875 Z M16.7325352,4.8249053 L17.6606128,3.89682765 C18.173176,3.38426452 19.004205,3.38426452 19.5167681,3.89682765 C20.0293313,4.40939078 20.0293313,5.24041982 19.5167681,5.75298295 L18.5886905,6.6810606 C18.0761273,7.19362373 17.2450983,7.19362373 16.7325352,6.6810606 C16.219972,6.16849747 16.219972,5.33746843 16.7325352,4.8249053 Z M13.1794575,1 C13.9043313,1 14.4919575,1.58762627 14.4919575,2.3125 L14.4919575,3.625 C14.4919575,4.34987373 13.9043313,4.9375 13.1794575,4.9375 C12.4545838,4.9375 11.8669575,4.34987373 11.8669575,3.625 L11.8669575,2.3125 C11.8669575,1.58762627 12.4545838,1 13.1794575,1 Z M6.88878517,3.89682765 C7.4013483,3.38426452 8.23237734,3.38426452 8.74494047,3.89682765 L9.67301812,4.8249053 C10.1855813,5.33746843 10.1855813,6.16849747 9.67301812,6.6810606 C9.16045499,7.19362373 8.32942596,7.19362373 7.81686282,6.6810606 L6.88878517,5.75298295 C6.37622204,5.24041982 6.37622204,4.40939078 6.88878517,3.89682765 Z" fill="#000000" opacity="0.3"></path>
        <path d="M4.74714567,18.0425758 C3.09410362,16.9740356 2,15.1147886 2,13 C2,9.6862915 4.6862915,7 8,7 C10.7957591,7 13.1449096,8.91215918 13.8109738,11.5 L16.25,11.5 C18.3210678,11.5 20,13.1789322 20,15.25 C20,17.3210678 18.3210678,19 16.25,19 L7.25,19 C6.28817895,19 5.41093178,18.6378962 4.74714567,18.0425758 Z" fill="#000000"></path>
    </g>
</svg>
